X: 05022
T: The DUKE OF FITZWILLIAM
C: Bob McQuillen June 1981
B: Bob's Note Book 5 #22
%R: reel
Z: 2021 John Chambers <jc:trillian.mit.edu>
M: C
L: 1/8
K: D
FE \
| D2DE FABd | fded B2A2 | f2fd edfe | dedB AFEF |\
| D2DE FABd | e2de fdBA | d2de fafd | e2d2 d2 :|
|: fg \
| a2af abag | fgaf dcBA | BdgB Afed | c2e2 e2fg |\
| a2af abag | fafd Bdgb | ABcd efga | f2d2 d2 :|
%%begintext align
%% In Memoriam -
%% Lawrence A. "Duke" Miller
%%endtext

%%sep 1 1 500

%%sep 1 1 500

